styles/2/Numix/128/places/green-folder-copy.svg

<?xml version="1.0" encoding="UTF-8" standalone="no"?>
<svg
   xmlns:dc="http://purl.org/dc/elements/1.1/"
   xmlns:cc="http://creativecommons.org/ns#"
   xmlns:rdf="http://www.w3.org/1999/02/22-rdf-syntax-ns#"
   xmlns:svg="http://www.w3.org/2000/svg"
   xmlns="http://www.w3.org/2000/svg"
   xmlns:sodipodi="http://sodipodi.sourceforge.net/DTD/sodipodi-0.dtd"
   xmlns:inkscape="http://www.inkscape.org/namespaces/inkscape"
   width="128"
   height="128"
   viewBox="0 0 128 128"
   id="svg2"
   version="1.1"
   inkscape:version="0.91 r"
   sodipodi:docname="green-folder-copy.svg">
  <metadata
     id="metadata20">
    <rdf:RDF>
      <cc:Work
         rdf:about="">
        <dc:format>image/svg+xml</dc:format>
        <dc:type
           rdf:resource="http://purl.org/dc/dcmitype/StillImage" />
      </cc:Work>
    </rdf:RDF>
  </metadata>
  <defs
     id="defs18" />
  <sodipodi:namedview
     pagecolor="#ffffff"
     bordercolor="#666666"
     borderopacity="1"
     objecttolerance="10"
     gridtolerance="10"
     guidetolerance="10"
     inkscape:pageopacity="0"
     inkscape:pageshadow="2"
     inkscape:window-width="1280"
     inkscape:window-height="969"
     id="namedview16"
     showgrid="false"
     inkscape:zoom="3.6875"
     inkscape:cx="90.236877"
     inkscape:cy="42.035933"
     inkscape:window-x="0"
     inkscape:window-y="0"
     inkscape:window-maximized="1"
     inkscape:current-layer="svg2" />
  <path
     style="opacity:1;fill:#66bb6a;fill-opacity:1;stroke:none"
     d="m 18,16.000002 c -2.927834,0 -6,3 -6,6.000001 l -1,-1e-6 -5,1e-6 c -2.940198,0 -6,2.99066 -6,6 l 0,46.999999 c 0,4 2,6 6,6 l 74.999998,0 c 3.13523,0 6,-2.71669 6,-6 l 0,-42 c 0,-3.009856 -2.91008,-6 -6,-6 l -6,0 0,-5 c 0,-2.922313 -2.90644,-6.000001 -6,-6.000001 z"
     id="path6-6-9"
     inkscape:connector-curvature="0"
     sodipodi:nodetypes="scccssssscccsss" />
  <path
     sodipodi:nodetypes="sccsssssssscsssssscssssssss"
     inkscape:connector-curvature="0"
     style="opacity:1;fill:#000000;fill-opacity:0.32156863000000002;stroke:none"
     d="m 18,16.000002 c -2.927834,0 -6,3 -6,6.000001 l -2,-1e-6 -4,1e-6 c -2.940198,1e-6 -6,2.99066 -6,6 l 0,46.999999 c 0,4 2,6 6,6 l 74.999998,0 c 3.13523,0 6,-2.71669 6,-6 l 0,-42 c 0,-3.009856 -2.91262,-6.125342 -6,-6 l -6,0 0,-5 c 0,-2.922313 -2.90644,-6.000001 -6,-6.000001 z m -12,10.000001 44.999998,-1e-6 c 1.18035,0 1.97129,1.029964 2,2 l 0,3 28,0 c 1.0111,0 2,1.017484 2,2 l 0,42 c 0,1.04258 -0.95753,2 -2,2 L 6,77.000002 c -0.92859,0 -2,-0.79269 -2,-2 L 4,28.000003 c 0,-0.98481 1.033057,-2 2,-2 z"
     id="path3778-0" />
  <path
     style="opacity:1;fill:#000000;fill-opacity:0.10196079;stroke:none"
     d="M 18 16 C 15.255156 16 12.37949 18.635986 12.03125 21.4375 C 12.008034 21.624268 12 21.8125 12 22 L 11 22 L 6 22 C 3.059802 22 0 24.99066 0 28 L 0 75 C 0 79 2 81 6 81 L 81 81 C 84.13523 81 87 78.28331 87 75 L 87 33 C 87 32.426574 86.911121 31.863954 86.71875 31.3125 C 86.656501 31.129261 86.580325 30.959595 86.5 30.78125 C 86.416117 30.597448 86.320874 30.426472 86.21875 30.25 C 86.126049 30.085905 86.013027 29.937934 85.90625 29.78125 C 85.901377 29.774267 85.911151 29.756967 85.90625 29.75 C 85.79866 29.59344 85.682989 29.460128 85.5625 29.3125 C 85.557649 29.306689 85.567371 29.287046 85.5625 29.28125 C 84.423719 27.896516 82.736651 26.929495 81 27 L 75 27 L 75 22 C 75 19.077687 72.09356 16 69 16 L 18 16 z "
     id="path3779" />
  <path
     style="fill:#66bb6a;fill-opacity:1;stroke:none"
     d="m 58.999998,48.000003 c -2.92783,0 -6,3 -6,6.000001 l -1,-10e-7 -5,10e-7 c -2.940196,0 -5.999998,2.99066 -5.999998,6 L 41,107 c 0,4 2,6 5.999998,6 L 122,113 c 3.13523,0 6,-2.71669 6,-6 l 0,-41.999997 c 0,-3.009856 -2.91008,-6 -6,-6 l -6,0 0,-5 c 0,-2.922313 -2.90644,-6.000001 -6,-6.000001 z"
     id="path6-6"
     inkscape:connector-curvature="0"
     sodipodi:nodetypes="scccssssscccsss" />
  <path
     sodipodi:nodetypes="sccsssssssscsssssscssssssss"
     inkscape:connector-curvature="0"
     style="fill:#000000;fill-opacity:0.32156863;stroke:none"
     d="m 58.999998,48.000003 c -2.92783,0 -6,3 -6,6.000001 l -2,-10e-7 -4,10e-7 c -2.940196,1e-6 -5.999998,2.99066 -5.999998,6 L 41,107 c 0,4 2,6 5.999998,6 L 122,113 c 3.13523,0 6,-2.71669 6,-6 l 0,-41.999997 c 0,-3.009856 -2.91262,-6.125342 -6,-6 l -6,0 0,-5 c 0,-2.922313 -2.90644,-6.000001 -6,-6.000001 z m -12,10.000001 45,-10e-7 c 1.18035,0 1.97129,1.029964 2,2 l 0,3 28.000002,0 c 1.0111,0 2,1.017484 2,2 L 124,107 c 0,1.04258 -0.95753,2 -2,2 l -75.000002,0 C 46.07141,109 45,108.20731 45,107 l 0,-46.999996 c 0,-0.98481 1.033057,-2 1.999998,-2 z"
     id="path3778" />
</svg>

<svg xmlns="http://www.w3.org/2000/svg" viewBox="0 0 128 128">
 <path d="m 18 16 c -2.928 0 -6 3 -6 6 l -1 0 -5 0 c -2.94 0 -6 2.991 -6 6 l 0 47 c 0 4 2 6 6 6 l 75 0 c 3.135 0 6 -2.717 6 -6 l 0 -42 c 0 -3.01 -2.91 -6 -6 -6 l -6 0 0 -5 c 0 -2.922 -2.906 -6 -6 -6 z" style="fill:#66bb6a;opacity:1;fill-opacity:1;stroke:none"/>
 <path d="m 18 16 c -2.928 0 -6 3 -6 6 l -2 0 -4 0 c -2.94 0 -6 2.991 -6 6 l 0 47 c 0 4 2 6 6 6 l 75 0 c 3.135 0 6 -2.717 6 -6 l 0 -42 c 0 -3.01 -2.913 -6.125 -6 -6 l -6 0 0 -5 c 0 -2.922 -2.906 -6 -6 -6 z m -12 10 45 0 c 1.18 0 1.971 1.03 2 2 l 0 3 28 0 c 1.011 0 2 1.017 2 2 l 0 42 c 0 1.043 -0.958 2 -2 2 l -75 0 c -0.929 0 -2 -0.793 -2 -2 l 0 -47 c 0 -0.985 1.033 -2 2 -2 z" style="fill:#000;opacity:1;fill-opacity:0.322;stroke:none"/>
 <path d="m 18 16 c -2.745 0 -5.621 2.636 -5.969 5.438 c -0.023 0.187 -0.031 0.375 -0.031 0.563 l -1 0 l -5 0 c -2.94 0 -6 2.991 -6 6 l 0 47 c 0 4 2 6 6 6 l 75 0 c 3.135 0 6 -2.717 6 -6 l 0 -42 c 0 -0.573 -0.089 -1.136 -0.281 -1.688 c -0.062 -0.183 -0.138 -0.353 -0.219 -0.531 c -0.084 -0.184 -0.179 -0.355 -0.281 -0.531 c -0.093 -0.164 -0.206 -0.312 -0.313 -0.469 c -0.005 -0.007 0.005 -0.024 0 -0.031 c -0.108 -0.157 -0.223 -0.29 -0.344 -0.438 c -0.005 -0.006 0.005 -0.025 0 -0.031 c -1.139 -1.385 -2.826 -2.352 -4.563 -2.281 l -6 0 l 0 -5 c 0 -2.922 -2.906 -6 -6 -6 l -51 0 z" style="fill:#000;opacity:1;fill-opacity:0.102;stroke:none"/>
 <path d="m 59 48 c -2.928 0 -6 3 -6 6 l -1 0 -5 0 c -2.94 0 -6 2.991 -6 6 l 0 47 c 0 4 2 6 6 6 l 75 0 c 3.135 0 6 -2.717 6 -6 l 0 -42 c 0 -3.01 -2.91 -6 -6 -6 l -6 0 0 -5 c 0 -2.922 -2.906 -6 -6 -6 z" style="fill:#66bb6a;fill-opacity:1;stroke:none"/>
 <path d="m 59 48 c -2.928 0 -6 3 -6 6 l -2 0 -4 0 c -2.94 0 -6 2.991 -6 6 l 0 47 c 0 4 2 6 6 6 l 75 0 c 3.135 0 6 -2.717 6 -6 l 0 -42 c 0 -3.01 -2.913 -6.125 -6 -6 l -6 0 0 -5 c 0 -2.922 -2.906 -6 -6 -6 z m -12 10 45 0 c 1.18 0 1.971 1.03 2 2 l 0 3 28 0 c 1.011 0 2 1.017 2 2 l 0 42 c 0 1.043 -0.958 2 -2 2 l -75 0 c -0.929 0 -2 -0.793 -2 -2 l 0 -47 c 0 -0.985 1.033 -2 2 -2 z" style="fill:#000;fill-opacity:0.322;stroke:none"/>
</svg>
